style-guide/assets/xd-icons-gear-tiny.svg

<svg viewBox="0 0 12 12" xmlns="http://www.w3.org/2000/svg">
  <path d="M6 8c-1.103 0-2-.897-2-2s.897-2 2-2 2 .897 2 2-.897 2-2 2m5-3H9.873a3.967 3.967 0 0 0-.428-1.031l.797-.798a.999.999 0 1 0-1.414-1.414l-.798.798A3.983 3.983 0 0 0 7 2.126V1a1 1 0 1 0-2 0v1.126c-.366.096-.713.24-1.03.429l-.798-.798a.999.999 0 1 0-1.414 1.414l.797.798A3.967 3.967 0 0 0 2.127 5H1a1 1 0 1 0 0 2h1.127c.095.366.239.713.428 1.031l-.797.798a.999.999 0 1 0 1.414 1.414l.798-.798c.317.189.664.333 1.03.429V11a1 1 0 1 0 2 0V9.874c.366-.096.713-.24 1.03-.429l.798.798a.999.999 0 1 0 1.414-1.414l-.797-.798c.189-.318.333-.665.428-1.031H11a1 1 0 1 0 0-2" fill="#000" fill-rule="evenodd"/>
</svg>

<?xml version="1.0" encoding="UTF-8"?>
<svg width="12px" height="12px" viewBox="0 0 12 12" version="1.1" xmlns="http://www.w3.org/2000/svg" xmlns:xlink="http://www.w3.org/1999/xlink">
    <!-- Generator: Sketch 51.3 (57544) - http://www.bohemiancoding.com/sketch -->
    <title>settings</title>
    <desc>Created with Sketch.</desc>
    <defs></defs>
    <g id="settings" stroke="none" stroke-width="1" fill="none" fill-rule="evenodd">
        <path d="M6,8 C4.897,8 4,7.103 4,6 C4,4.897 4.897,4 6,4 C7.103,4 8,4.897 8,6 C8,7.103 7.103,8 6,8 M11,5 L9.873,5 C9.778,4.634 9.634,4.287 9.445,3.969 L10.242,3.171 C10.633,2.78 10.633,2.147 10.242,1.757 C9.852,1.366 9.219,1.366 8.828,1.757 L8.03,2.555 C7.713,2.366 7.366,2.222 7,2.126 L7,1 C7,0.448 6.553,0 6,0 C5.447,0 5,0.448 5,1 L5,2.126 C4.634,2.222 4.287,2.366 3.97,2.555 L3.172,1.757 C2.781,1.366 2.148,1.366 1.758,1.757 C1.367,2.147 1.367,2.78 1.758,3.171 L2.555,3.969 C2.366,4.287 2.222,4.634 2.127,5 L1,5 C0.447,5 0,5.448 0,6 C0,6.552 0.447,7 1,7 L2.127,7 C2.222,7.366 2.366,7.713 2.555,8.031 L1.758,8.829 C1.367,9.22 1.367,9.853 1.758,10.243 C2.148,10.634 2.781,10.634 3.172,10.243 L3.97,9.445 C4.287,9.634 4.634,9.778 5,9.874 L5,11 C5,11.552 5.447,12 6,12 C6.553,12 7,11.552 7,11 L7,9.874 C7.366,9.778 7.713,9.634 8.03,9.445 L8.828,10.243 C9.219,10.634 9.852,10.634 10.242,10.243 C10.633,9.853 10.633,9.22 10.242,8.829 L9.445,8.031 C9.634,7.713 9.778,7.366 9.873,7 L11,7 C11.553,7 12,6.552 12,6 C12,5.448 11.553,5 11,5" id="Fill-1" fill="#000000"></path>
    </g>
</svg>
